icons/2_Variations/Amazon Web Services bg.var.svg

<svg xmlns="http://www.w3.org/2000/svg" width="1024" height="1024" fill="none">
   <g clip-path="url(#a)">
      <path fill="#F8C18C" d="M512 1024c282.77 0 512-229.23 512-512S794.77 0 512 0 0 229.23 0 512s229.23 512 512 512Z"/>
      <path fill="#fff" d="M400.28 479.1a51.202 51.202 0 0 0 1.88 15.15 91.245 91.245 0 0 0 5.46 12.29 7.302 7.302 0 0 1 1.19 3.9c0 1.71-1 3.41-3.24 5.12l-10.73 7.15a8.158 8.158 0 0 1-4.44 1.54 7.754 7.754 0 0 1-5.1-2.39 52.68 52.68 0 0 1-6.12-8 137.555 137.555 0 0 1-5.29-10c-13.267 15.66-29.957 23.49-50.07 23.49-14.29 0-25.71-4.07-34-12.25s-12.59-19.07-12.59-32.7c0-14.46 5.1-26.24 15.49-35.07 10.39-8.83 24.13-13.33 41.66-13.33 6.024.053 12.038.51 18 1.37 6.31.85 12.8 2.22 19.58 3.75v-12.46c0-12.95-2.71-22-8-27.24-5.29-5.24-14.63-7.83-27.73-7.83a77.362 77.362 0 0 0-18.41 2.2 135.542 135.542 0 0 0-18.39 5.8 48.56 48.56 0 0 1-6 2.22c-.878.283-1.789.448-2.71.49-2.39 0-3.58-1.71-3.58-5.27v-8.34c0-2.73.34-4.78 1.19-6a12.76 12.76 0 0 1 4.78-3.56 97.675 97.675 0 0 1 21.44-7.68 103.308 103.308 0 0 1 26.58-3.22c20.27 0 35.07 4.61 44.61 13.8 9.37 9.17 14.12 23.15 14.12 41.88v55.19h.42ZM331.16 505a55.131 55.131 0 0 0 17.54-3.07A37.998 37.998 0 0 0 364.87 491a27.093 27.093 0 0 0 5.8-10.92 61.96 61.96 0 0 0 1.71-14.81v-7.15a142.31 142.31 0 0 0-15.68-2.9c-5.307-.666-10.651-1-16-1-11.41 0-19.75 2.22-25.39 6.83-5.64 4.61-8.31 11.08-8.31 19.59 0 8 2 14 6.29 18 4.07 4.36 10.02 6.36 17.87 6.36Zm136.75 18.39c-3.07 0-5.12-.51-6.49-1.71-1.37-1-2.56-3.41-3.58-6.63l-40-131.65a29.776 29.776 0 0 1-1.54-6.83c0-2.73 1.37-4.27 4.07-4.27h16.7c3.22 0 5.44.53 6.61 1.71 1.39 1 2.41 3.41 3.41 6.66l28.63 112.73 26.58-112.73c.85-3.41 1.88-5.63 3.22-6.66a11.712 11.712 0 0 1 6.83-1.71H526c3.24 0 5.46.53 6.83 1.71s2.56 3.41 3.22 6.66l26.9 114.09 29.46-114.09c1-3.41 2.22-5.63 3.41-6.66a11.094 11.094 0 0 1 6.63-1.71h15.85c2.71 0 4.27 1.39 4.27 4.27a17.164 17.164 0 0 1-.36 2.73 24.304 24.304 0 0 1-1.19 4.27L580 515.2c-1 3.41-2.22 5.61-3.58 6.63a10.877 10.877 0 0 1-6.46 1.71h-14.71c-3.22 0-5.44-.51-6.83-1.71-1.39-1.2-2.54-3.41-3.2-6.83l-26.41-109.82-26.24 109.65c-.85 3.41-1.86 5.63-3.2 6.83-1.34 1.2-3.78 1.71-6.83 1.71l-14.63.02ZM686.7 528a113.48 113.48 0 0 1-26.22-3.05c-8.51-2-15.15-4.27-19.58-6.83-2.73-1.51-4.59-3.22-5.27-4.76a12.001 12.001 0 0 1-1-4.78v-8.68c0-3.56 1.37-5.27 3.9-5.27a9.684 9.684 0 0 1 3.07.51c1 .34 2.56 1 4.27 1.71a91.966 91.966 0 0 0 18.73 6 101.894 101.894 0 0 0 20.27 2c10.71 0 19.07-1.88 24.85-5.63a18.355 18.355 0 0 0 8.83-16.22 16.59 16.59 0 0 0-4.55-11.9c-3.07-3.22-8.87-6.12-17.22-8.85l-24.68-7.68c-12.44-3.9-21.63-9.69-27.24-17.34a40.577 40.577 0 0 1-8.53-24.7 38.102 38.102 0 0 1 4.61-18.9 43.672 43.672 0 0 1 12.27-14 53.504 53.504 0 0 1 17.71-8.85 74.195 74.195 0 0 1 21.46-2.9c3.814-.027 7.626.2 11.41.68 3.9.51 7.47 1.19 11.05 1.88 3.41.85 6.66 1.71 9.71 2.71a37.297 37.297 0 0 1 7.17 3.07 14.723 14.723 0 0 1 5.12 4.27 9.17 9.17 0 0 1 1.51 5.61v8c0 3.58-1.37 5.46-3.93 5.46a17.688 17.688 0 0 1-6.46-2 77.926 77.926 0 0 0-32.68-6.63c-9.71 0-17.39 1.51-22.66 4.76s-8 8.17-8 15.15a15.988 15.988 0 0 0 1.261 6.6 15.987 15.987 0 0 0 3.859 5.5c3.39 3.24 9.69 6.49 18.71 9.39l24.19 7.64c12.25 3.93 21.12 9.39 26.39 16.36a38.552 38.552 0 0 1 7.83 23.83 44 44 0 0 1-4.42 19.75 45.994 45.994 0 0 1-12.44 15 55.005 55.005 0 0 1-18.9 9.54 81.497 81.497 0 0 1-24.4 3.55Zm32.19 82.77c-56 41.39-137.43 63.34-207.4 63.34-98.09 0-186.45-36.27-253.23-96.56-5.27-4.76-.51-11.24 5.8-7.49 72.19 41.88 161.26 67.26 253.38 67.26 62.17 0 130.43-12.95 193.28-39.51 9.37-4.28 17.37 6.11 8.18 12.94l-.01.02Zm23.34-26.58c-7.17-9.17-47.36-4.42-65.58-2.2-5.44.68-6.29-4.1-1.34-7.68 32-22.46 84.63-16 90.75-8.51 6.12 7.68-1.71 60.29-31.68 85.48-4.59 3.93-9 1.88-7-3.22 6.85-16.87 22-54.85 14.85-63.89v.02Z"/>
   </g>
   <defs>
      <clipPath id="a">
         <path fill="#fff" d="M0 0h1024v1024H0z"/>
      </clipPath>
   </defs>
</svg>

<svg width="1024" height="1024" viewBox="0 0 1024 1024" fill="none" xmlns="http://www.w3.org/2000/svg">
<g clip-path="url(#clip0_3_377)">
<path d="M512 1024C794.77 1024 1024 794.77 1024 512C1024 229.23 794.77 0 512 0C229.23 0 0 229.23 0 512C0 794.77 229.23 1024 512 1024Z" fill="#F8C18C"/>
<path d="M400.28 479.1C400.146 484.216 400.78 489.323 402.16 494.25C403.676 498.476 405.5 502.584 407.62 506.54C408.379 507.701 408.792 509.054 408.81 510.44C408.81 512.15 407.81 513.85 405.57 515.56L394.84 522.71C393.543 523.648 391.999 524.183 390.4 524.25C388.461 524.121 386.641 523.268 385.3 521.86C383.009 519.395 380.96 516.716 379.18 513.86C377.273 510.587 375.51 507.254 373.89 503.86C360.623 519.52 343.933 527.35 323.82 527.35C309.53 527.35 298.11 523.28 289.82 515.1C281.53 506.92 277.23 496.03 277.23 482.4C277.23 467.94 282.33 456.16 292.72 447.33C303.11 438.5 316.85 434 334.38 434C340.404 434.053 346.418 434.51 352.38 435.37C358.69 436.22 365.18 437.59 371.96 439.12V426.66C371.96 413.71 369.25 404.66 363.96 399.42C358.67 394.18 349.33 391.59 336.23 391.59C330.027 391.583 323.846 392.321 317.82 393.79C311.56 395.284 305.414 397.223 299.43 399.59C297.481 400.461 295.476 401.203 293.43 401.81C292.552 402.093 291.641 402.258 290.72 402.3C288.33 402.3 287.14 400.59 287.14 397.03V388.69C287.14 385.96 287.48 383.91 288.33 382.69C289.619 381.143 291.258 379.923 293.11 379.13C299.933 375.743 307.128 373.165 314.55 371.45C323.233 369.228 332.168 368.146 341.13 368.23C361.4 368.23 376.2 372.84 385.74 382.03C395.11 391.2 399.86 405.18 399.86 423.91V479.1H400.28ZM331.16 505C337.134 504.934 343.058 503.897 348.7 501.93C354.95 499.757 360.523 495.989 364.87 491C367.619 487.856 369.604 484.119 370.67 480.08C371.834 475.231 372.408 470.258 372.38 465.27V458.12C367.212 456.861 361.977 455.893 356.7 455.22C351.393 454.554 346.049 454.22 340.7 454.22C329.29 454.22 320.95 456.44 315.31 461.05C309.67 465.66 307 472.13 307 480.64C307 488.64 309 494.64 313.29 498.64C317.36 503 323.31 505 331.16 505ZM467.91 523.39C464.84 523.39 462.79 522.88 461.42 521.68C460.05 520.68 458.86 518.27 457.84 515.05L417.84 383.4C417.06 381.192 416.543 378.9 416.3 376.57C416.3 373.84 417.67 372.3 420.37 372.3H437.07C440.29 372.3 442.51 372.83 443.68 374.01C445.07 375.01 446.09 377.42 447.09 380.67L475.72 493.4L502.3 380.67C503.15 377.26 504.18 375.04 505.52 374.01C507.567 372.753 509.952 372.156 512.35 372.3H526C529.24 372.3 531.46 372.83 532.83 374.01C534.2 375.19 535.39 377.42 536.05 380.67L562.95 494.76L592.41 380.67C593.41 377.26 594.63 375.04 595.82 374.01C597.794 372.755 600.115 372.157 602.45 372.3H618.3C621.01 372.3 622.57 373.69 622.57 376.57C622.523 377.489 622.403 378.402 622.21 379.3C621.944 380.757 621.546 382.186 621.02 383.57L580 515.2C579 518.61 577.78 520.81 576.42 521.83C574.499 523.064 572.239 523.662 569.96 523.54H555.25C552.03 523.54 549.81 523.03 548.42 521.83C547.03 520.63 545.88 518.42 545.22 515L518.81 405.18L492.57 514.83C491.72 518.24 490.71 520.46 489.37 521.66C488.03 522.86 485.59 523.37 482.54 523.37L467.91 523.39ZM686.7 528C677.871 528.007 669.072 526.983 660.48 524.95C651.97 522.95 645.33 520.68 640.9 518.12C638.17 516.61 636.31 514.9 635.63 513.36C634.973 511.853 634.632 510.225 634.63 508.58V499.9C634.63 496.34 636 494.63 638.53 494.63C639.574 494.633 640.611 494.806 641.6 495.14C642.6 495.48 644.16 496.14 645.87 496.85C651.881 499.514 658.16 501.525 664.6 502.85C671.273 504.192 678.063 504.862 684.87 504.85C695.58 504.85 703.94 502.97 709.72 499.22C712.494 497.539 714.773 495.152 716.324 492.302C717.875 489.453 718.643 486.243 718.55 483C718.614 480.815 718.244 478.638 717.464 476.596C716.683 474.554 715.506 472.686 714 471.1C710.93 467.88 705.13 464.98 696.78 462.25L672.1 454.57C659.66 450.67 650.47 444.88 644.86 437.23C639.371 430.163 636.372 421.479 636.33 412.53C636.205 405.938 637.794 399.425 640.94 393.63C643.976 388.136 648.161 383.361 653.21 379.63C658.511 375.604 664.517 372.603 670.92 370.78C677.893 368.769 685.123 367.792 692.38 367.88C696.194 367.853 700.006 368.08 703.79 368.56C707.69 369.07 711.26 369.75 714.84 370.44C718.25 371.29 721.5 372.15 724.55 373.15C727.041 373.92 729.444 374.949 731.72 376.22C733.731 377.233 735.482 378.694 736.84 380.49C737.938 382.147 738.468 384.116 738.35 386.1V394.1C738.35 397.68 736.98 399.56 734.42 399.56C732.158 399.315 729.965 398.636 727.96 397.56C717.673 393.018 706.524 390.756 695.28 390.93C685.57 390.93 677.89 392.44 672.62 395.69C667.35 398.94 664.62 403.86 664.62 410.84C664.568 413.105 664.998 415.354 665.881 417.44C666.763 419.526 668.079 421.401 669.74 422.94C673.13 426.18 679.43 429.43 688.45 432.33L712.64 439.97C724.89 443.9 733.76 449.36 739.03 456.33C744.224 463.179 746.979 471.566 746.86 480.16C746.941 486.998 745.428 493.76 742.44 499.91C739.412 505.742 735.17 510.856 730 514.91C724.377 519.284 717.958 522.524 711.1 524.45C703.194 526.864 694.966 528.061 686.7 528ZM718.89 610.77C662.89 652.16 581.46 674.11 511.49 674.11C413.4 674.11 325.04 637.84 258.26 577.55C252.99 572.79 257.75 566.31 264.06 570.06C336.25 611.94 425.32 637.32 517.44 637.32C579.61 637.32 647.87 624.37 710.72 597.81C720.09 593.53 728.09 603.92 718.9 610.75L718.89 610.77ZM742.23 584.19C735.06 575.02 694.87 579.77 676.65 581.99C671.21 582.67 670.36 577.89 675.31 574.31C707.31 551.85 759.94 558.31 766.06 565.8C772.18 573.48 764.35 626.09 734.38 651.28C729.79 655.21 725.38 653.16 727.38 648.06C734.23 631.19 749.38 593.21 742.23 584.17V584.19Z" fill="white"/>
</g>
<defs>
<clipPath id="clip0_3_377">
<rect width="1024" height="1024" fill="white"/>
</clipPath>
</defs>
</svg>
